X:39
T:Bull's Head. Ru1.119, The
%%VWML:RutherfordVol1-2248-p60-0p60
Z:Transcription by Village Music Project, Steve Mansfield July 2015
F:http://www.village-music-project.org.uk/
F:http://www.vwml.org/record/RutherfordVol1/2248/p60
L:1/8
Q:1/4=120
K:G
D|GBG AFD|EGE DCB,|CEC B,DB,|A,BG FED|
GBG AFD|EGE DCB,|CEC B,DB,|A,GFG2:|
|:G|Bcd efg|ded dcB|cBc ABA|aga fed|
gfe dcB|cac BAG|cBc Agf|gdBG2:|
W:The first Cu. Cast off & Hands round 4 with
W:the 3d. Cu. .| Cast up & Hands round with the
W:2d. Cu. Cross over & half figure .|. Right
W:Hand & Left :|
|:
T:Bob's Whim. Ru1.120
B:Rutherford's Country Dances Vol 1, 1756
Z:village music project, Ruairidh Greig July 2015
M:C|
L:1/8
Q:1/4=100
K:Dmix
B|D/D/D AF ECCE|D/D/D AF BGAF|GBFd ECCE|D/D/D AF ADD:|
|:f|d/d/d fd ecce|d/d/d fd gefd|gbfa ec-c(f/g/)|afged2d:|
W:Cast off & turn your Partner .| the 2d. Cu.
W:does the same :| Foot it & Hands round four
W:.|. Right Hand and Left :|
|:
